ion/camera.svg

<svg viewBox="0 0 512 512" xmlns="http://www.w3.org/2000/svg"><g><path d="M256 208a64 64 0 1 0 0 128 64 64 0 1 0 0-128Z"/><path d="M432 144h-59c-3 0-6.72-1.94-9.62-5l-25.94-40.94v-.001c-.42-.65-.87-1.27-1.37-1.85 -8.96-10.45-21.07-16.21-34.07-16.21h-92c-13 0-25.11 5.76-34.07 16.21v0c-.51.58-.96 1.2-1.37 1.85l-25.94 41c-2.22 2.42-5.34 5-8.62 5v-8 0c0-8.84-7.17-16-16-16h-24v0c-8.84 0-16 7.16-16 16v8h-4 -.001c-26.5.02-47.98 21.5-48 48v191.94 0c.02 26.49 21.5 47.97 48 48h352v0c26.49-.03 47.97-21.51 48-48v-192 0c-.03-26.5-21.51-47.98-48-48ZM256 368v0c-53.02 0-96-42.99-96-96 0-53.02 42.98-96 96-96 53.01 0 96 42.98 96 96v0c-.07 52.99-43.01 95.93-96 96Z"/></g></svg>

<svg xmlns="http://www.w3.org/2000/svg" width="512" height="512" viewBox="0 0 512 512"><circle cx="256" cy="272" r="64"/><path d="M432,144H373c-3,0-6.72-1.94-9.62-5L337.44,98.06a15.52,15.52,0,0,0-1.37-1.85C327.11,85.76,315,80,302,80H210c-13,0-25.11,5.76-34.07,16.21a15.52,15.52,0,0,0-1.37,1.85l-25.94,41c-2.22,2.42-5.34,5-8.62,5v-8a16,16,0,0,0-16-16H100a16,16,0,0,0-16,16v8H80a48.05,48.05,0,0,0-48,48V384a48.05,48.05,0,0,0,48,48H432a48.05,48.05,0,0,0,48-48V192A48.05,48.05,0,0,0,432,144ZM256,368a96,96,0,1,1,96-96A96.11,96.11,0,0,1,256,368Z"/></svg>
